X:1
T:[ID 2-39b]
T:[ID 2-39b]
T:Bezeichnung standardisiert: Polonaise Polon\"aise
T:Urheber unbekannt Datum in der hier transkribierten schriftlichen Quelle: 1767
C:Urheber unbekannt
C:Datum in der hier transkribierten schriftlichen Quelle: 1767
L:1/8
M:3/4
K:C
V:1 treble 
V:1
 cc/d/ ee/c/ dd/B/ | cc/B/ cc/B/ c2 | dd/c/ Bcde | fe/d/ e2 e2 :: GA/B/ cGcG | AA/G/ AA/G/ A2 | %6
 AB/^c/ dAdA | BB/A/ BB/A/ B2 | dd/c/ dd/e/ f2 | dd/c/ dd/e/ f2 | egfedc | B/c/d/B/ c2 C2 :| %12

